dist/img/geo-marker.svg

<svg width="32" height="44" viewBox="0 0 32 44" fill="none" xmlns="http://www.w3.org/2000/svg">
<path d="M31.2328 17.0885C31.2328 30.7719 15.8904 43.4446 15.8904 43.4446C15.8904 43.4446 0.547913 30.7719 0.547913 17.0885C0.548067 7.65076 7.41708 0 15.8904 0C24.3638 0 31.2328 7.65076 31.2328 17.0885Z" fill="#DD7D5C"/>
<path d="M13.3815 14.1983C13.7093 14.6657 13.981 15.053 14.2527 15.4403C14.2433 15.4529 14.2334 15.465 14.2241 15.4777C13.8863 15.1645 13.5486 14.8513 13.1583 14.4895C13.0367 15.909 12.9211 17.2531 12.8059 18.5965C12.789 18.5978 12.7721 18.5992 12.7557 18.6005C12.6453 17.3032 12.5348 16.0051 12.4185 14.637C12.1749 14.8347 11.9739 14.9982 11.7735 15.1612C11.7577 15.1471 11.7419 15.1331 11.7261 15.1198C11.9026 14.832 12.0785 14.5449 12.2888 14.2023C10.7252 14.0621 9.20892 13.9259 7.69205 13.7897C7.69205 13.769 7.69147 13.7476 7.69147 13.7269C9.14114 13.5954 10.5902 13.4632 12.096 13.3263C11.8144 12.917 11.5754 12.5691 11.3364 12.2219C11.3457 12.2072 11.3551 12.1932 11.3644 12.1785C11.701 12.4396 12.0376 12.7007 12.4162 12.9945C12.5319 11.7125 12.6423 10.4859 12.7528 9.25933C12.7697 9.25866 12.7861 9.25799 12.803 9.25732C12.9251 10.5159 13.0467 11.7739 13.1752 13.1006C13.6468 12.666 14.0716 12.274 14.4964 11.8827C14.5045 11.8928 14.5121 11.9028 14.5203 11.9128C14.21 12.3728 13.9004 12.8322 13.5486 13.3544C16.8955 13.4305 20.17 13.5046 23.4445 13.5794C23.4445 13.5887 23.4445 13.5981 23.4445 13.6074C20.1157 13.8031 16.788 13.9987 13.3815 14.1983Z" fill="#403637"/>
<path d="M23.8869 13.9278C21.7933 16.2888 19.7359 18.6105 17.6786 20.9314C17.6961 20.9521 17.7136 20.9735 17.7311 20.9942C19.3766 19.2 21.022 17.4059 22.7007 15.5757C22.907 15.9984 23.1027 16.3977 23.3189 16.8397C20.8496 18.8962 18.3867 20.9481 15.9233 22.9999C15.9116 22.9859 15.8993 22.9726 15.8876 22.9585C16.337 22.3696 16.7846 21.7787 17.2356 21.1911C19.0061 18.8849 20.7807 16.582 22.5453 14.2704C22.7194 14.0427 22.904 13.9158 23.167 13.9258C23.3861 13.9345 23.6058 13.9278 23.8869 13.9278Z" fill="#403637"/>
<path d="M15.3377 22.9637C12.8866 20.9426 10.4359 18.9221 7.96665 16.8863C8.16999 16.4863 8.36281 16.107 8.57024 15.6991C9.80489 17.0231 11.015 18.3212 12.082 19.4656C10.6194 17.7483 9.02016 15.8713 7.40045 13.9697C7.7078 13.9864 8.0058 13.9924 8.30146 14.0245C8.37625 14.0325 8.45864 14.1086 8.51298 14.1781C10.7842 17.0632 13.0525 19.9517 15.3202 22.8395C15.3395 22.8642 15.3523 22.8943 15.3681 22.9223C15.3588 22.9357 15.3483 22.9497 15.3377 22.9637Z" fill="#403637"/>
<path d="M21.0779 13.2587C20.1933 13.2587 19.3478 13.2594 18.5028 13.258C18.2966 13.258 18.3439 13.0771 18.3451 12.9442C18.3544 11.8879 18.3702 10.8309 18.3784 9.77463C18.3836 9.11027 18.3796 8.4459 18.3796 7.78153C18.4129 7.75817 18.4456 7.7348 18.4789 7.71143C18.5221 7.79289 18.5566 7.88369 18.6104 7.95514C19.1175 8.62952 19.6352 9.29455 20.1331 9.97761C20.2651 10.1586 20.3744 10.3816 20.4363 10.6059C20.6514 11.3898 20.8418 12.183 21.0393 12.9736C21.0569 13.0471 21.0598 13.1252 21.0779 13.2587Z" fill="#403637"/>
<path d="M16.2792 22.0459C16.1168 22.3176 15.9543 22.5894 15.7919 22.8618C15.7831 22.8578 15.7744 22.8545 15.7662 22.8504C15.966 22.0886 16.1629 21.3254 16.3663 20.5642C16.9219 18.481 17.484 16.3998 18.0304 14.3132C18.0923 14.0761 18.1817 13.9873 18.3891 13.9913C18.8922 14.0007 19.3953 13.994 19.9352 13.994C19.6682 14.5722 19.4082 15.1398 19.1447 15.7053C18.2717 17.5796 17.3964 19.4525 16.5252 21.3274C16.4761 21.4336 16.4527 21.5551 16.4177 21.6693C16.3715 21.7955 16.3254 21.9203 16.2792 22.0459Z" fill="#403637"/>
<path d="M7.26025 13.5703C8.52646 11.7194 9.74007 9.9453 10.9537 8.17188C10.9706 8.17855 10.9876 8.18523 11.0045 8.19191C10.8666 9.07795 10.7276 9.96332 10.5902 10.8494C10.4763 11.5825 10.37 12.317 10.2437 13.0468C10.2245 13.159 10.1234 13.3319 10.0498 13.3392C9.14933 13.4287 8.24716 13.4928 7.26025 13.5703Z" fill="#403637"/>
<path d="M20.1992 8.08301C21.5133 9.86578 22.7836 11.5891 24.0989 13.3739C23.7862 13.3739 23.5478 13.3772 23.31 13.3732C22.6977 13.3639 22.0859 13.3492 21.4735 13.3425C21.3321 13.3412 21.2439 13.3071 21.2065 13.1215C20.8816 11.523 20.5474 9.92654 20.2173 8.32939C20.2062 8.27597 20.2085 8.22055 20.1992 8.08301Z" fill="#403637"/>
<path d="M14.0546 13.0527C14.4987 12.3383 14.9177 11.6645 15.336 10.9908C15.3226 10.9728 15.3091 10.9548 15.2963 10.9367C14.9843 11.0977 14.6722 11.2579 14.3602 11.4188C14.3532 11.4048 14.3456 11.3908 14.3386 11.3768C14.7651 10.9821 15.1917 10.5882 15.5861 10.2236C16.4322 11.1644 17.2642 12.0892 18.1314 13.0534C16.7582 13.0527 15.433 13.0527 14.0546 13.0527Z" fill="#403637"/>
<path d="M15.6177 21.6199C14.9802 19.5654 14.3427 17.5109 13.7052 15.4564C13.7221 15.447 13.7397 15.4383 13.7566 15.429C14.362 16.5761 14.9673 17.7232 15.6083 18.9378C16.3007 17.4227 16.9674 15.9638 17.6341 14.5049C17.6493 14.5109 17.6651 14.5176 17.6803 14.5236C17.0136 16.8852 16.3475 19.2469 15.6808 21.6086C15.6603 21.6126 15.6393 21.6166 15.6177 21.6199Z" fill="#403637"/>
<path d="M16.2791 22.047C16.3253 21.9214 16.3714 21.7966 16.4176 21.6711C16.7179 21.1402 17.0253 20.6147 17.3168 20.0786C18.3844 18.1162 19.449 16.1518 20.5095 14.1841C20.6106 13.9971 20.7164 13.8936 20.9238 13.9063C21.2715 13.927 21.6209 13.9123 21.9855 13.9123C21.9574 13.9637 21.9294 14.0292 21.8908 14.0846C20.0707 16.6893 18.25 19.2927 16.4275 21.8954C16.386 21.9535 16.3288 21.9969 16.2791 22.047Z" fill="#403637"/>
<path d="M17.4435 11.8555C16.8463 11.1297 16.2497 10.4046 15.6362 9.6588C15.0583 10.2838 14.5254 10.8593 13.9931 11.4356C13.9721 11.4189 13.9516 11.4022 13.9306 11.3848C14.5196 9.94524 15.1086 8.505 15.7244 7C16.3467 8.62987 16.9439 10.1923 17.5405 11.7547C17.5083 11.7881 17.4762 11.8215 17.4435 11.8555Z" fill="#403637"/>
<path d="M12.2584 12.149C11.8365 11.8158 11.4573 11.516 11.0646 11.2055C10.946 11.3624 10.8402 11.5027 10.7286 11.6496C10.6375 11.2443 10.8122 10.2467 11.0196 9.95359C11.601 9.13431 12.1824 8.31571 12.7644 7.49777C12.8234 7.41498 12.8888 7.33752 12.9847 7.21533C12.9847 7.78822 12.9847 8.30302 12.9847 8.81849C12.9724 8.82183 12.9595 8.82583 12.9473 8.82917C12.904 8.52003 12.8608 8.21088 12.8175 7.9024C12.7977 7.90106 12.7778 7.89973 12.7574 7.89839C12.5932 9.2959 12.4296 10.6934 12.2584 12.149Z" fill="#403637"/>
<path d="M15.3549 22.4368C14.7273 20.7875 14.1419 19.1149 13.4553 17.4978C13.1129 16.6905 13.0977 15.9126 13.2134 15.0827C13.2175 15.052 13.2344 15.0232 13.2672 14.9331C13.9894 17.4644 14.697 19.9442 15.404 22.4247C15.3876 22.4287 15.3713 22.4328 15.3549 22.4368Z" fill="#403637"/>
<path d="M8.88702 14.1265C9.19496 14.1265 9.44796 14.1112 9.69805 14.1345C9.78803 14.1432 9.90489 14.2213 9.95222 14.3082C10.6534 15.6015 11.3452 16.9015 12.0049 18.2322C10.9736 16.8748 9.94287 15.5167 8.88702 14.1265Z" fill="#403637"/>
</svg>

<svg width="32" height="44" viewBox="0 0 32 44" xmlns="http://www.w3.org/2000/svg" fill="none"><path d="M31.233 17.088c0 13.683-15.342 26.356-15.342 26.356s-15.342-12.673-15.342-26.356c0-9.438 6.869-17.088 15.342-17.088s15.342 7.651 15.342 17.088z" fill="#DD7D5C"/><path d="M13.382 14.198l.871 1.242-.029.037-1.066-.988-.352 4.107-.05.004-.337-3.963-.645.524-.047-.041.563-.918-4.597-.413-.001-.063 4.405-.401-.76-1.104.028-.043 1.052.816.337-3.735.05-.002.372 3.843 1.321-1.218.024.03-.972 1.442 9.896.225v.028l-10.063.591zM23.887 13.928c-2.094 2.361-4.151 4.683-6.208 7.004l.053.063 4.97-5.418.618 1.264-7.396 6.16-.036-.041 1.348-1.767c1.77-2.306 3.545-4.609 5.31-6.921.174-.228.359-.355.622-.345l.72.002zM15.338 22.964l-7.371-6.077.604-1.187 3.512 3.766-4.682-5.496c.307.017.605.023.901.055.075.008.157.084.212.154 2.271 2.885 4.54 5.774 6.807 8.661l.048.083-.03.041zM21.078 13.259l-2.575-.001c-.206 0-.159-.181-.158-.314l.033-3.17c.005-.664.001-1.329.001-1.993l.099-.07.131.244c.507.674 1.025 1.339 1.523 2.022.132.181.241.404.303.628.215.784.405 1.577.603 2.368l.039.285zM16.279 22.046l-.487.816-.026-.011.6-2.286c.556-2.083 1.118-4.164 1.664-6.251.062-.237.151-.326.359-.322.503.009 1.006.003 1.546.003l-.79 1.711c-.873 1.874-1.748 3.747-2.619 5.622l-.108.342-.139.377zM7.26 13.57l3.693-5.398.051.02-.414 2.657c-.114.733-.22 1.468-.346 2.197-.019.112-.12.285-.194.292-.9.089-1.803.154-2.79.231zM20.199 8.083l3.9 5.291-.789-.001-1.836-.031c-.141-.001-.23-.035-.267-.221-.325-1.598-.659-3.195-.989-4.792l-.018-.246zM14.055 13.053l1.281-2.062-.04-.054-.936.482-.022-.042 1.248-1.153 2.545 2.83-4.077-.001zM15.618 21.62l-1.912-6.164.051-.027 1.852 3.509 2.026-4.433.046.019-1.999 7.085-.063.011zM16.279 22.047l.139-.376c.3-.531.608-1.056.899-1.592 1.068-1.962 2.132-3.927 3.193-5.895.101-.187.207-.291.414-.278.348.021.697.006 1.062.006l-.095.172c-1.82 2.605-3.641 5.208-5.463 7.811l-.148.152zM17.444 11.855l-1.807-2.197-1.643 1.777-.063-.051 1.794-4.385 1.816 4.755-.097.101zM12.258 12.149l-1.194-.943-.336.444c-.091-.405.084-1.403.291-1.696l1.745-2.456.22-.282v1.603l-.037.011-.13-.927-.06-.004-.499 4.251zM15.355 22.437c-.628-1.649-1.213-3.322-1.9-4.939-.342-.807-.358-1.585-.242-2.415l.054-.15 2.137 7.492-.049.012zM8.887 14.127c.308 0 .561-.015.811.008.09.009.207.087.254.174.701 1.293 1.393 2.593 2.053 3.924l-3.118-4.106z" fill="#403637"/></svg>
